!!!!SEGMENT: pl-wtm--r-2473_hertz-michal--haslo-znad-wisly.krn
!!!cenid: 18xx:2393
!!!COM: Hertz, Michał
!!!COM-rismid: pe41023359
!!!CDT: 1844/09/28-~1918
!!!CNT: Polish
!!!OTL: Hasło - Znad Wisły
!!!PDT:
!!!AGN:
!!!SMS-siglum: PL-Wtm
!!!SMS-shelfmark: R 2473
!!!SMS-shelfwork: W
!!!SMS-variant:
!!!SMS-altvar:
!!!NIFC-rismid: 1001082541
!!!URL-scan: http://repozytorium.nifc.pl/skany/pl-wtm-nut--r2473
!!!ONB-nifc:
!!!key: G-
**kern	**kern	**text	**dynam
*part2	*part1	*part1	*part1
*staff2	*staff1	*staff1	*
*Iempty	*Iempty	*	*
*I"Bas 1&2	*I"Ten 1&2	*	*
*clefF4	*clefG2	*	*
*	*ITrd8c12	*	*
*k[b-e-a-d-g-c-]	*k[b-e-a-d-g-c-]	*	*
*G-:	*G-:	*	*
*M4/4	*M4/4	*	*
*met(c)	*met(c)	*	*
*^	*^	*	*
!	!	!LO:TX:i:a:t=Allegro mod. pomposo.	!	!	!LO:DY:b:rj
8.B-/	8.B-\	8.d-/	8.d-\	Nie-	f
16B-/	16B-\	16d-/	16d-\	-chaj	.
=1	=1	=1	=1	=1	=1
*2\right	*2\right	*2\right	*2\right	*	*
[>2d-\ [<2G-\	2ryy	[>2g-/	[<2B-\	pieśń	.
8d-\] 8G-\]	8ryy	8g-/]	8B-\]	.	.
8c-/	8c-\	8e-/	8e-\	wam	.
8B-/	8B-\	8d-/	8d-\	na-	.
8G-/	8G-\	8B-/	8B-\	-sza	.
=2	=2	=2	=2	=2	=2
2E-/	2E-\	2c-/	2G-\	śpie-	.
4G-/	4G-\	4B-/	4B-\	-wa,	.
8.G-/	8.G-\	8.B-/	8.B-\	nie-	.
16G-/	16G-\	16B-/	16B-\	-chaj	.
!!LO:LB:g=original
=3	=3	=3	=3	=3	=3
[>2B-/ 2E-/	[<2E-\	[>2e-/	[<2G-\	łą-	.
8B-/]	8E-\]	8e-/]	8G-\]	.	.
8A-/	8A-\	8c-/	8c-\	-czy	.
8G-/	8G-\	8B-/	8B-\	i	.
8E-/	8E-\	8G-/	8G-\	roz-	.
=4	=4	=4	=4	=4	=4
2C-/	2C-\	2A-/	2E-\	-grze-	.
4E-/	4E-\	4G-/	4G-\	-wa,	.
8.E-/	8.E-\	8.G-/	8.G-\	nie-	.
16E-/	16E-\	16G-/	16G-\	-chaj	.
!!LO:LB:g=original
=5	=5	=5	=5	=5	=5
!	!	!	!LO:TX:a:t=cre-scen-do:dur=6q:ext=ud:problem:text with extention lines	!	!
2E-/	2E-\	2c-/	2G-\	pieśń	.
4G-/	4G-\	4B-/	4B-\	wam	.
8.E-/	8.E-\	8.G-/	8.G-\	na-	.
16E-/	16E-\	16G-/	16G-\	-sza	.
=6	=6	=6	=6	=6	=6
2G-/ 2C-/	2C-\	2e-/	2G-\	śpie-	.
4G-/ 4BB-/	4BB-\	4d-/	4G-\	-wa,	.
8.F/	8.C-\	8.d-/	8.A-\	nie-	.
16G-/	16BB-\	16d-/	16G-\	-chaj	.
!!LO:LB:g=original
=7	=7	=7	=7	=7	=7
!	!	!	!	!	!LO:DY:b:rj
[>2F/	[<2D-\	[>2a-/	[<2c-\	łą-	ff
8F/]	8D-\]	8a-/]	8c-\]	.	.
8F/	8D-\	8a-/	8c-\	-czy	.
8A-/	8D-\	8f/	8c-\	i	.
8F/	8D-\	8d-/	8c-\	za-	.
=8	=8	=8	=8	=8	=8
2G-/	2G-\	2g-/	2B-\	-grze-	.
4GG-/	4GG-\	4G-/	4ryy	-wa.	.
4r	4ryy	4r	4ryy	.	.
*v	*v	*	*	*	*
*	*v	*v	*	*
==	==	==	==
*-	*-	*-	*-
!!!system-decoration: {s1,s2}
!!!RDF**kern: > = above
!!!RDF**kern: < = below
!!!AIN: 2 empty
!!!ENC: Berenika Jozajtis
!!!END: 2021-06-16
!!!ENC: Antoni Szymański
!!!END: 2021-10-09
